!!!COM: Geffrard, Nicolas
!!!CDT: 1871-1930
!!!OTL: National Anthem, Haiti - La Dessalinienne (The Dessalines Song)
!!!ENC: Davis, Matthew J.
!!Vocal Line Only
**kern
*clefG2
*k[b-e-]
*B-:
*M4/4
=1-
16f
8.g
16a
=2
4..b-
16f
4d
4f
=3
2b-
8b-
8f
8b-
8cc
=4
4..dd
16dd
4.ee-
16dd
=5
2.g
8.g
16g
=6
2cc
4..dd
16dd
=7
4ff
2ee-
4g
=8
4..cc
16g
4a
4cc
=9
2ff
8ff
16r
16f
8.g
16a
=10
4..b-
16f
4d
4f
=11
2b-
8b-
8f
8b-
8cc
=12
4.dd
16dd
4..ee-
16dd
=13
2.g
4g
=14
4..cc
16cc
4..dd
16dd
=15
8.ff
16ee-
4..gg
16b-
8.a
16b-
=16
4dd
4dd
4dd
8.cc
16dd
=17
2cc
4b-
4r
==|!
*-
